X:1
T:Title
%%score { ( 1 4 ) | ( 2 3 ) }
L:1/8
M:4/4
K:Ab
V:1 treble nm="Grand Piano"
V:4 treble 
V:2 bass 
V:3 bass 
V:1
 z4 z2[Q:1/4=100] [CE]2 | [Ec]3 [Fd] [Ec]2 [EB]2 | [FA]2 F2 E2 [CE]2 | [DF]2 [EA]2 [Ed]2 [Ec]2 | %4
 c4 B2 E2 | c3 d c2 B2 | A2 F2 [CE]2 [CE]2 | [A,DF]2 [DFB]2 [CEA]2 [B,DG]2 | [CA]6 [Ec]2 | %9
 [GB]3 [FA] [EG]2 [GB]2 | [FA]2 [EG]2 [=DF]2 [FA]2 | [EG]2 [EB]2 [Ec]2 [CEA]2 | %12
 [EG]4 [=DF]2 [DB]2 | B3 A G2 [Ge]2 | [Ae]2 [EAc]2 [EGB]2 [B,EG]2 | [G,E]2 [CEA]2 [B,EG]3 [A,=DF] | %16
[M:3/4] [G,E]6 |[M:1/4] [G,DE]2 |[M:4/4] [A,CA]3 [DG] [EA]2 [Ec]2 | c4 B2 E2 | B3 =A B2 d2 | %21
 d4 c2 A2 | e3 d c2 B2 | A2 F2 [CE]2 [CE]2 | [A,DF]2 [DFB]2 [CEA]2 [B,EG]2 |[M:3/4] [CEA]6 |] %26
V:2
 z4 z2 [A,,A,]2 | [A,,A,]3 [A,,A,] [A,,A,]2 [C,A,]2 | [D,A,]2 [F,A,D]2 [A,C]2 [A,,A,]2 | %3
 [D,A,]2 [C,A,]2 [B,,G,]2 [A,,A,]2 | [E,E]6 z2 | [A,E]3 [A,F][K:bass] [A,E]2 [E,G,D]2 | %6
 [F,A,C]2 [D,A,D]2 [A,,A,]2 [A,,A,]2 | D,2 B,,2 E,2 E,2 | [A,,A,]6 [A,,A,]2 | %9
 [E,B,]3 [E,B,] [E,B,]2 [E,B,]2 | [=D,B,]2 [E,B,]2 [B,,B,]2 [B,,B,]2 | %11
 [E,B,]2 [E,G,]2 [A,,A,]2 A,,2 | [B,,B,]6 [B,,A,]2 | [E,G,E]3 [E,CE] [E,B,E]2 [E,B,]2 | %14
 [A,C]2 A,2 E,2 E,2 | E,2 A,,2 B,,3 B,, |[M:3/4] E,6 |[M:1/4] E,2 | %18
[M:4/4] A,,3 [B,,E,] [C,A,]2 [A,,A,]2 | [E,E]6 z2 | [E,G,E]3 [E,_G,E] [E,=G,E]2 [E,B,E]2 | B,4 z4 | %22
 [A,CE]3 [G,B,E] [A,E]2 [E,G,D]2 | [F,A,C]2 [D,A,D]2 [A,,A,]2 [A,,A,]2 | D,2 B,,2 E,2 E,2 | %25
[M:3/4] A,,6 |] %26
V:3
 x8 | x8 | x8 | x8 | A,4 G,2 [E,G,]2 | x4[K:bass] x4 | x8 | x8 | x8 | x8 | x8 | x8 | x8 | x8 | x8 | %15
 x8 |[M:3/4] x6 |[M:1/4] x2 |[M:4/4] x8 | A,4 G,2 [E,G,]2 | x8 | A,,4- [A,,A,]2 [A,CE]2 | x8 | x8 | %24
 x8 |[M:3/4] x6 |] %26
V:4
 x8 | x8 | x8 | x8 | x8 | x8 | x8 | x8 | x8 | x8 | x8 | x8 | x8 | x8 | x8 | x8 |[M:3/4] x6 | %17
[M:1/4] x2 |[M:4/4] x8 | x8 | x8 | E6 z2 | x8 | x8 | x8 |[M:3/4] x6 |] %26

